X:1
T: Mysoxen (guitar part)
C: Olav Mjelva
K: A
L: 1/4
M: 4/4

"A"[A,E]B,C z |z4|"D"DEFz|F/2EF "E"G/2E/2 z/2|"A"[A,E]B,C z|z4|"D"DEF z|"E"z/2F/2E/2C/2"A"B,/2A,z:|
|:"D"[DE][DE][C/2E/2][D/2E/2] z|z2"E"z2|CDE72,B/2z|z2"D"E/22B,B,/2|"D"[DE][DE][C/2E/2][D/2E/2] z|z3 z/2"E"z/2|[B,4E4]-|[B,2E2]"A"[A,3E43]A/2:|


